frontend/public/svg/hand gestures/scan-fingerprint.svg

<svg width="106" height="164" viewBox="0 0 106 164" fill="none" xmlns="http://www.w3.org/2000/svg">
<g clip-path="url(#clip0)">
<path d="M105.077 52.8721C105.28 44.345 105.389 35.6761 105.496 27.2874L105.562 22.2192C105.562 20.7465 105.484 19.2749 105.328 17.8105C104.791 12.1759 102.016 8.05204 97.0806 5.5547C93.4707 3.72811 89.5281 3.36385 86.4952 3.2503L86.2582 3.24181C72.0977 2.71215 57.4559 2.16407 43.0493 1.79389L41.2299 1.74534C35.3957 1.58716 29.3655 1.42375 23.4998 2.01839C9.90709 3.3967 6.28325 8.85152 4.84258 17.2067C3.9585 22.3373 3.54756 27.6307 3.14982 32.7494C3.0494 34.0444 2.94916 35.3393 2.84152 36.6323C2.56652 39.9199 2.41206 43.2699 2.26242 46.5096C2.20138 47.813 2.1419 49.1159 2.0743 50.4187C1.98635 52.1002 1.88255 53.7818 1.77753 55.4633C1.53797 59.3226 1.29043 63.3125 1.26221 67.2432C1.21495 73.8151 1.26232 80.4966 1.3122 86.9583C1.34764 91.7587 1.38439 96.7226 1.3811 101.604C1.3811 106.207 1.3378 110.889 1.29842 115.416C1.23673 122.478 1.17385 129.781 1.25195 136.963C1.37317 141.012 1.86897 145.04 2.7332 148.997C3.93233 154.874 7.65959 158.727 13.8134 160.452C18.6198 161.799 23.9414 162.463 30.5613 162.543C37.8807 162.633 44.5694 162.675 50.842 162.675C57.5039 162.675 63.6938 162.625 69.6561 162.524C74.8622 162.436 80.1424 161.975 85.2494 161.529C86.7721 161.398 88.2948 161.263 89.8169 161.14C93.8133 160.811 96.7918 158.663 98.6689 154.744C99.4073 153.216 100.025 151.631 100.515 150.006C102.916 141.933 103.544 133.741 103.75 123.928C103.987 112.672 104.096 101.226 104.203 90.1553C104.247 85.4677 104.295 80.7802 104.348 76.092L104.352 75.7638L104.244 75.7598C104.331 73.4784 104.422 71.197 104.516 68.9156C104.728 63.6591 104.949 58.2232 105.077 52.8721ZM9.22705 131.339C9.18898 131.076 9.14941 130.823 9.11068 130.584C9.00186 130.025 8.94214 129.456 8.93223 128.886L9.09821 119.238C9.38372 102.536 9.67973 85.2663 10.0401 68.2822C10.2914 56.3979 10.5652 44.7545 11.1054 32.9647C11.3883 28.5812 11.9018 24.2155 12.6433 19.8859L12.9295 18.0068C13.1032 16.4347 13.7688 14.9576 14.8319 13.7865C15.8949 12.6154 17.3007 11.81 18.8487 11.4854L19.7021 11.2622C21.6265 10.6631 23.6192 10.3103 25.6323 10.2121H25.672C39.7111 10.264 54.1394 10.4274 69.7822 10.7103C75.4982 10.8133 81.3094 11.1264 86.929 11.4322L89.278 11.5583C90.5868 11.6454 91.8771 11.9152 93.1117 12.3596C95.7626 13.2785 97.3713 15.0953 97.7632 17.6103C98.1898 20.1323 98.4241 22.6829 98.4654 25.2403C98.4943 32.0813 98.495 40.1884 98.279 48.4543C98.1169 54.6672 97.8931 60.9825 97.6752 67.0903C97.454 73.334 97.225 79.7904 97.0615 86.1438C96.8778 93.2979 96.776 100.573 96.6763 107.606C96.6192 111.675 96.5568 115.747 96.4892 119.82C96.4531 121.849 96.3724 123.871 96.287 126.012C96.251 126.923 96.2135 127.853 96.1788 128.811C75.0079 127.973 53.6553 129.098 33.003 130.189C25.2188 130.6 17.1733 131.023 9.22705 131.339ZM95.5021 136.513C95.4732 136.823 95.4489 137.14 95.4246 137.46C95.3754 138.397 95.2586 139.329 95.0755 140.249C94.0982 144.595 93.2804 147.905 92.4265 150.983C91.7701 153.346 90.1332 154.636 87.561 154.811C85.5494 154.949 83.5383 155.116 81.5273 155.282C77.3497 155.63 73.0297 155.988 68.7819 156.06C54.9796 156.294 42.8651 156.3 31.7448 156.075C27.3125 155.986 21.5059 155.642 15.9113 153.764C12.879 152.746 11.1199 150.917 10.3651 148.008L10.1452 147.168C9.37926 144.251 8.58771 141.235 9.06553 137.99L10.6599 137.915C73.6034 134.948 91.6704 135.488 95.5021 136.513Z" fill="black"/>
<path d="M37.2942 69.656V69.6881L37.2996 69.7203C37.4178 70.4961 37.5306 71.2732 37.6441 72.051C37.9119 73.8933 38.1884 75.7986 38.5415 77.6613C38.7082 78.5415 39.0822 80.521 40.9534 80.521C41.1017 80.5203 41.2497 80.5092 41.3963 80.4869C43.2216 80.2158 43.2 78.6156 43.1836 77.4474V77.2137C43.1784 76.5541 43.151 75.8912 43.1227 75.2283C43.0211 73.7804 43.0415 72.326 43.1843 70.8814L43.3057 69.927C43.6674 67.0779 44.0409 64.1323 45.0655 61.5142C45.5323 60.2659 46.2627 59.133 47.2072 58.1929C48.1518 57.2528 49.2882 56.5275 50.5386 56.0666C51.8934 55.5952 53.3327 55.4169 54.7615 55.5436C56.1904 55.6703 57.5761 56.0992 58.8268 56.8017C59.1464 56.975 59.4613 57.1574 59.7757 57.3392C60.3277 57.6582 60.8977 57.9877 61.4877 58.2673C63.7232 59.3279 64.6019 58.4065 64.9255 57.7626C65.158 57.222 65.2627 56.635 65.2312 56.0473C65.1996 55.4596 65.0328 54.8872 64.7437 54.3746C63.768 52.9688 62.4749 51.8126 60.9691 50.9996C57.4906 49.2735 53.1122 49.1278 48.9628 50.5974C46.9511 51.2623 45.0919 52.321 43.4935 53.7119C41.8952 55.1028 40.5897 56.7979 39.6533 58.6985C38.1447 62.1573 37.3426 65.8829 37.2942 69.656Z" fill="black"/>
<path d="M40.0653 98.5867C38.8375 98.3169 37.5803 98.204 36.324 98.25L35.6443 98.2447C33.6281 98.2165 31.6037 98.2224 29.4601 98.2276C28.6429 98.2276 27.8068 98.2322 26.943 98.2329L26.9466 96.3538C26.9511 94.8114 26.9557 93.4351 26.9347 92.0587L26.9261 91.4214C26.9377 90.1612 26.8701 88.9017 26.7239 87.6501C26.5782 86.596 26.3366 84.8423 24.344 84.8423H24.2606C22.5246 84.8843 22.257 86.237 22.0417 87.3246L22.016 87.4558C21.8333 88.3478 21.7083 89.2509 21.6414 90.1586C21.5534 91.4536 21.4818 92.7492 21.4109 94.0455C21.3407 95.326 21.2703 96.6052 21.1837 97.8863C20.8825 102.326 22.5515 104.434 26.7626 104.935C29.2726 105.215 31.7969 105.346 34.3223 105.329C35.3311 105.329 36.3044 105.313 37.2265 105.293C38.6346 105.211 39.9841 104.702 41.095 103.833C41.5312 103.444 41.8737 102.961 42.0968 102.421C42.32 101.881 42.4181 101.297 42.3836 100.714C42.2629 99.8468 41.0176 98.8413 40.0653 98.5867Z" fill="black"/>
<path d="M70.8222 51.5877C72.9881 51.5529 75.1251 51.5609 77.3888 51.5687C78.2644 51.5722 79.1485 51.5746 80.0424 51.576C80.0424 52.6563 80.0424 53.6966 80.0365 54.7073C80.0306 57.1752 80.0247 59.5064 80.0522 61.8194C80.0962 65.5139 81.741 66.3947 83.1147 66.4834C83.1849 66.4879 83.2539 66.4899 83.3228 66.4899C85.2314 66.4899 86.5769 64.7598 86.8552 61.9139C86.8775 61.6803 86.8828 61.4452 86.8841 61.2109C86.8906 60.2881 86.9031 59.366 86.9149 58.4432C86.9412 56.3698 86.9687 54.2256 86.9313 52.1155C86.886 49.6148 86.3544 47.9746 85.2563 46.9553C84.1406 45.9215 82.4282 45.5061 79.8396 45.6525C76.6531 45.8317 73.439 46.0817 70.4408 46.3265C68.8952 46.4519 67.8096 46.8818 67.2117 47.6031C67.001 47.8649 66.8467 48.1675 66.7588 48.4918C66.6702 48.8161 66.6505 49.155 66.6997 49.4875C66.8914 51.2872 68.4193 51.6218 70.8222 51.5877Z" fill="black"/>
<path d="M86.75 96.449C86.4218 94.904 86.2085 93.2986 86.0005 91.7523C85.8856 90.899 85.7721 90.0504 85.6395 89.2024C85.6021 88.9628 85.5738 88.7174 85.545 88.4706C85.5062 87.6804 85.3146 86.9046 84.9812 86.1865C84.7429 85.733 84.4134 85.3326 84.0144 85.011C83.6153 84.6888 83.1546 84.4525 82.6604 84.3153C82.3755 84.2681 82.0834 84.2838 81.8052 84.3619C81.5269 84.4394 81.2689 84.5772 81.0497 84.7649C80.7754 85.0209 80.5581 85.3326 80.4131 85.6785C80.2674 86.0244 80.1971 86.3972 80.2057 86.7726C80.1893 88.2232 80.3146 89.692 80.4354 91.1123L80.5214 92.1395C80.6231 93.42 80.7471 94.6992 80.8823 96.0953L81.0438 97.7768C80.5778 97.826 80.1328 97.8752 79.7029 97.9238C78.595 98.0472 77.5482 98.1647 76.5243 98.2185C75.7688 98.2586 74.9957 98.2566 74.2428 98.2579C73.0962 98.2349 71.9483 98.2789 70.8062 98.3892C68.6029 98.6517 67.2797 100.03 67.3533 101.999C67.3441 102.441 67.4274 102.88 67.5981 103.288C67.7687 103.696 68.0234 104.063 68.345 104.366C68.6666 104.669 69.0479 104.901 69.4653 105.048C69.8821 105.194 70.3258 105.251 70.7662 105.215H71.3136C75.2031 105.215 78.7217 105.132 82.1169 104.415C86.2407 103.544 87.7155 101.012 86.75 96.449Z" fill="black"/>
<path d="M23.901 66.7576C23.9936 66.7635 24.0835 66.7661 24.1715 66.7661C25.857 66.7661 26.8622 65.764 27.0801 63.8541C27.2869 62.0485 27.3197 60.2002 27.3519 58.4136C27.3611 57.8807 27.3711 57.3484 27.3849 56.8168C27.4125 55.7712 27.4059 54.7166 27.3987 53.5962C27.3987 53.1617 27.3933 52.7147 27.3919 52.2494C28.2183 52.2093 29.0165 52.1739 29.7936 52.1391C31.8998 52.0459 33.889 51.9573 35.8974 51.8077C37.0551 51.8182 38.1983 51.5491 39.2298 51.0233C40.0495 50.4897 41.1023 49.1429 40.952 48.1604C40.8207 47.2986 39.7706 46.637 38.8465 46.0528L38.5702 45.8782C38.0949 45.6582 37.5619 45.5942 37.0479 45.6952C36.9383 45.7037 36.8302 45.7129 36.7278 45.7181C33.1265 45.9019 29.598 46.0843 26.0229 46.3055C22.6198 46.5156 21.544 47.6038 21.418 50.9655C21.3083 53.8902 21.2291 56.864 21.151 59.7401L21.0773 62.334C21.039 62.814 21.0597 63.297 21.1385 63.7721C21.443 65.2541 21.9911 66.6454 23.901 66.7576Z" fill="black"/>
<path d="M51.3859 72.4167C51.5137 73.2024 51.7068 73.9756 51.9634 74.729L52.1676 75.2777C52.6631 76.8076 53.35 78.2693 54.2116 79.6273C55.0202 80.7831 56.7159 81.3672 57.407 81.5641C57.7166 81.6691 58.0482 81.6928 58.3694 81.6311C58.6906 81.57 58.9905 81.4263 59.2395 81.2143C59.4532 80.9971 59.605 80.7266 59.6795 80.4306C59.7541 80.1353 59.7485 79.8248 59.6635 79.5321C59.5047 78.795 59.3546 78.054 59.2043 77.3124C58.7155 74.5308 58.0073 71.7913 57.0863 69.1213C56.8226 68.4046 56.4014 67.7561 55.854 67.2238C55.3066 66.6915 54.6468 66.2882 53.9231 66.0444C53.0542 65.7629 52.1344 65.6741 51.2276 65.7841C50.3208 65.8941 49.4488 66.2005 48.6724 66.6817C47.4834 67.3308 46.4868 68.2818 45.783 69.4389C45.0792 70.5967 44.6932 71.9192 44.6642 73.2733C44.6188 76.8129 45.52 80.3 47.2745 83.3743C47.5377 83.7734 47.8869 84.1094 48.2962 84.3562C48.7056 84.6036 49.1647 84.7559 49.6406 84.8032H49.6938C49.9119 84.813 50.1294 84.7769 50.3328 84.6981C50.5362 84.6187 50.7212 84.498 50.8754 84.3437C51.1048 84.0464 51.2702 83.7044 51.3619 83.3402C51.4536 82.9759 51.4696 82.5965 51.4084 82.2257C51.3467 81.2255 51.2115 80.2206 51.0802 79.2479C50.9758 78.4807 50.8681 77.6878 50.7992 76.9081C50.769 76.5701 50.7183 76.2301 50.6678 75.8842C50.4636 74.5229 50.2694 73.228 51.2552 71.7565C51.3018 71.9855 51.3446 72.2047 51.3859 72.4167Z" fill="black"/>
<path d="M67.7386 66.7956C67.5384 65.6834 67.2594 64.5868 66.9037 63.514C66.7934 63.1215 66.6038 62.7559 66.3465 62.4393C66.0896 62.1228 65.7705 61.862 65.4092 61.673C65.1765 61.5758 64.9258 61.5297 64.6737 61.5378C64.4216 61.546 64.1744 61.6081 63.9485 61.7202C63.0849 62.2157 62.4375 63.0161 62.1336 63.9642C61.6833 62.2324 60.8659 60.6176 59.7368 59.2294C58.2928 57.6155 56.1203 56.885 53.3105 57.055C50.6964 56.9237 48.8146 57.5702 47.5663 59.0286C47.2158 59.489 46.9699 60.0204 46.8461 60.5857C46.7225 61.1509 46.7239 61.7363 46.85 62.301C46.9016 62.5013 46.9968 62.6878 47.1285 62.8473C47.2602 63.0068 47.4252 63.1353 47.6121 63.2238C48.3177 63.5415 49.2417 63.1996 49.8731 62.9141C52.3672 61.7865 54.4807 62.4199 56.5259 64.9067C56.6195 65.0278 56.7039 65.1554 56.779 65.2887C56.9257 65.5872 57.1441 65.8447 57.4146 66.0383C57.6115 66.1571 57.8122 66.2942 58.019 66.4321C58.6292 66.9472 59.3704 67.2839 60.1601 67.404C60.2397 67.404 60.3191 67.3975 60.3976 67.3837C60.7003 67.3345 60.9884 67.2203 61.242 67.0476C61.4957 66.8757 61.7085 66.6499 61.8656 66.3868C61.8958 66.3382 61.9119 66.2811 61.9388 66.2306C61.9611 66.7628 62.0103 67.2951 62.0608 67.8188C62.1055 68.2783 62.15 68.7377 62.1749 69.1972C62.2825 73.8703 61.6538 78.5316 60.3117 83.0091C59.8242 84.5253 59.545 86.1005 59.482 87.6921C59.482 88.9437 59.9822 89.9086 60.8177 90.2722C61.0455 90.3713 61.291 90.4225 61.5395 90.4225C62.2264 90.3857 62.8743 90.091 63.353 89.5968C64.8721 88.2191 66.0153 86.4772 66.6746 84.5351C68.4894 78.8007 68.855 72.7059 67.7386 66.7956Z" fill="black"/>
<path d="M49.3855 90.8084C51.8021 90.8084 53.8794 90.0432 54.9643 88.7128C55.2322 88.3262 55.4114 87.8845 55.4893 87.4204C55.5671 86.9564 55.5416 86.4812 55.4146 86.0277C55.1823 85.6444 54.8473 85.3339 54.4477 85.1311C54.0481 84.9283 53.5997 84.841 53.1533 84.8797C49.3754 85.9233 46.6805 85.6588 44.1411 83.9957C43.9119 83.8447 43.6443 83.762 43.3698 83.7574C43.0952 83.7528 42.8251 83.8263 42.591 83.9701C42.2225 84.1998 41.9224 84.5247 41.7219 84.9093C41.5213 85.2946 41.4275 85.7264 41.4507 86.1603L41.4732 86.2672C41.504 86.348 41.5388 86.4405 41.569 86.5403C41.6638 86.8429 41.7834 87.1369 41.9266 87.4198C42.8803 89.1952 45.3061 90.4731 48.2577 90.754C48.637 90.7901 49.0153 90.8084 49.3855 90.8084Z" fill="black"/>
<path d="M56.0422 90.2866C53.3959 90.6345 50.7743 91.1497 48.193 91.8284C47.4461 92.0161 46.4428 92.9822 46.4769 93.6773C46.5254 94.1472 46.6807 94.5994 46.931 95.0005C47.1813 95.4008 47.52 95.7388 47.921 95.9883C48.705 96.3079 49.5368 96.4949 50.3823 96.5415C50.8417 96.5967 51.3418 96.6571 51.9023 96.7509L51.9789 96.764L52.0538 96.7417C52.4654 96.6203 52.9209 96.4963 53.4066 96.363C54.6838 96.0132 56.1317 95.6168 57.5488 95.0773C57.9662 94.9375 58.3485 94.7091 58.6694 94.4078C58.9904 94.1065 59.2424 93.7396 59.4082 93.3314C59.5181 93.0131 59.5552 92.6744 59.5168 92.3403C59.4784 92.0056 59.3652 91.684 59.1861 91.3991C58.6872 90.5466 56.9899 90.1711 56.0422 90.2866Z" fill="black"/>
<path d="M54.7426 149.584C54.9013 149.601 55.0608 149.61 55.2205 149.61C56.4177 149.585 57.5652 149.127 58.4512 148.321C59.3372 147.515 59.902 146.417 60.0414 145.227C60.2731 142.62 58.3695 140.679 55.3038 140.395C54.5951 140.287 53.8722 140.321 53.1768 140.496C52.4814 140.67 51.8274 140.981 51.2536 141.411C50.8366 141.772 50.497 142.215 50.255 142.711C50.013 143.207 49.8734 143.747 49.8451 144.299C49.6423 146.705 52.0221 149.273 54.7426 149.584Z" fill="black"/>
</g>
<defs>
<clipPath id="clip0">
<rect width="105.014" height="162.115" fill="white" transform="translate(0.685059 0.945923)"/>
</clipPath>
</defs>
</svg>

<svg xmlns="http://www.w3.org/2000/svg" width="106" height="164" fill="none" viewBox="0 0 106 164"><g fill="#000" clip-path="url(#a)"><path d="M105.077 52.872c.203-8.527.312-17.196.419-25.585l.066-5.068q0-2.21-.234-4.408c-.537-5.635-3.312-9.759-8.247-12.256-3.61-1.827-7.553-2.191-10.586-2.305l-.237-.008c-14.16-.53-28.802-1.078-43.209-1.448l-1.82-.049c-5.833-.158-11.863-.321-17.73.273C9.908 3.397 6.284 8.852 4.844 17.207c-.885 5.13-1.295 10.424-1.693 15.542-.1 1.295-.2 2.59-.308 3.883-.275 3.288-.43 6.638-.58 9.878a639 639 0 0 1-.188 3.909 500 500 0 0 1-.296 5.044c-.24 3.86-.488 7.85-.516 11.78-.047 6.572 0 13.254.05 19.715.036 4.8.072 9.765.07 14.646 0 4.603-.044 9.285-.084 13.812-.061 7.062-.124 14.365-.046 21.547a65.6 65.6 0 0 0 1.481 12.034c1.2 5.877 4.927 9.73 11.08 11.455 4.807 1.347 10.128 2.011 16.748 2.091 7.32.09 14.008.132 20.281.132 6.662 0 12.852-.05 18.814-.151 5.206-.088 10.486-.549 15.593-.995 1.523-.131 3.046-.266 4.568-.389 3.996-.329 6.975-2.477 8.852-6.396a32.4 32.4 0 0 0 1.846-4.738c2.401-8.073 3.029-16.265 3.235-26.078.237-11.256.346-22.702.453-33.773q.066-7.03.145-14.063l.004-.328-.108-.004q.13-3.423.272-6.844c.212-5.257.433-10.693.561-16.044M9.227 131.34a45 45 0 0 0-.116-.755 10 10 0 0 1-.179-1.698l.166-9.648c.286-16.702.582-33.972.942-50.956.251-11.884.525-23.527 1.065-35.317.283-4.384.797-8.75 1.538-13.08l.287-1.878a7.505 7.505 0 0 1 5.919-6.522l.853-.223a24 24 0 0 1 5.93-1.05h.04c14.04.052 28.467.215 44.11.498 5.716.103 11.527.416 17.147.722l2.349.126c1.309.087 2.6.357 3.834.802 2.65.918 4.26 2.735 4.651 5.25.427 2.522.661 5.073.702 7.63.03 6.841.03 14.948-.186 23.214-.162 6.213-.386 12.529-.604 18.636-.221 6.244-.45 12.7-.614 19.054-.183 7.154-.285 14.429-.385 21.462q-.086 6.104-.187 12.214c-.036 2.029-.117 4.051-.202 6.192-.036.911-.074 1.841-.108 2.799-21.171-.838-42.524.287-63.176 1.378-7.784.411-15.83.834-23.776 1.15m86.275 5.174q-.042.466-.077.947-.075 1.407-.35 2.789c-.977 4.346-1.795 7.656-2.648 10.734-.657 2.363-2.294 3.653-4.866 3.828-2.012.138-4.023.305-6.034.471-4.177.348-8.497.706-12.745.778-13.802.234-25.917.24-37.037.015-4.433-.089-10.24-.433-15.834-2.311-3.032-1.018-4.791-2.847-5.546-5.756l-.22-.84c-.766-2.917-1.557-5.933-1.08-9.178l1.595-.075c62.943-2.967 81.01-2.427 84.842-1.402"/><path d="M37.294 69.656v.032l.006.032c.118.776.23 1.553.344 2.331.268 1.842.544 3.748.898 5.61.166.88.54 2.86 2.411 2.86q.224 0 .443-.034c1.826-.271 1.804-1.871 1.788-3.04v-.233a57 57 0 0 0-.061-1.986 26 26 0 0 1 .061-4.347l.122-.954c.361-2.85.735-5.795 1.76-8.413a9.26 9.26 0 0 1 5.473-5.447 10.13 10.13 0 0 1 8.288.735c.32.173.634.355.949.537.552.32 1.122.649 1.712.928 2.235 1.06 3.114.14 3.438-.504a3.82 3.82 0 0 0-.182-3.388A10.9 10.9 0 0 0 60.969 51c-3.478-1.727-7.857-1.872-12.006-.403a15.96 15.96 0 0 0-9.31 8.102 28.3 28.3 0 0 0-2.359 10.957m2.771 28.931a15 15 0 0 0-3.741-.337l-.68-.005c-2.016-.029-4.04-.023-6.184-.017-.817 0-1.653.004-2.517.005l.004-1.88c.004-1.542.009-2.918-.012-4.294l-.009-.638c.012-1.26-.056-2.52-.202-3.77-.146-1.055-.387-2.809-2.38-2.809h-.083c-1.736.042-2.004 1.395-2.22 2.483l-.025.13a21 21 0 0 0-.375 2.704 280 280 0 0 0-.23 3.886 291 291 0 0 1-.227 3.841c-.302 4.44 1.367 6.548 5.579 7.049 2.51.28 5.034.411 7.56.394 1.008 0 1.981-.016 2.904-.036a6.93 6.93 0 0 0 3.868-1.46 3.87 3.87 0 0 0 1.289-3.119c-.121-.867-1.366-1.873-2.319-2.127m30.757-46.999c2.166-.035 4.303-.027 6.567-.02q1.313.006 2.653.008c0 1.08 0 2.12-.005 3.131-.006 2.468-.012 4.8.015 7.112.044 3.695 1.689 4.576 3.063 4.664q.105.007.208.007c1.908 0 3.254-1.73 3.532-4.576.022-.234.028-.469.03-.703q.01-1.384.03-2.768c.026-2.073.054-4.217.016-6.328-.045-2.5-.577-4.14-1.675-5.16-1.115-1.033-2.828-1.449-5.416-1.302-3.187.179-6.401.429-9.4.674-1.545.125-2.63.555-3.228 1.276a2.43 2.43 0 0 0-.512 1.884c.191 1.8 1.72 2.135 4.122 2.1M86.75 96.449c-.328-1.545-.541-3.15-.75-4.697-.114-.853-.228-1.702-.36-2.55-.038-.24-.066-.485-.095-.731a6.1 6.1 0 0 0-.564-2.285 3.75 3.75 0 0 0-2.32-1.87 1.97 1.97 0 0 0-1.611.449 2.65 2.65 0 0 0-.844 2.008c-.017 1.45.109 2.919.23 4.34l.085 1.026c.102 1.281.226 2.56.361 3.956l.162 1.682q-.697.074-1.341.147c-1.108.123-2.155.24-3.179.294-.755.04-1.528.039-2.281.04a30 30 0 0 0-3.437.131c-2.203.263-3.526 1.641-3.453 3.61a3.17 3.17 0 0 0 .992 2.367 3.17 3.17 0 0 0 2.421.849h.548c3.89 0 7.408-.083 10.803-.8 4.124-.871 5.599-3.403 4.633-7.966M23.901 66.758q.14.008.27.008c1.686 0 2.691-1.002 2.91-2.912.206-1.806.239-3.654.27-5.44q.014-.8.034-1.597c.027-1.046.02-2.1.014-3.22 0-.435-.006-.882-.007-1.348q1.238-.059 2.402-.11c2.106-.093 4.095-.182 6.103-.331a7.2 7.2 0 0 0 3.333-.785c.82-.533 1.872-1.88 1.722-2.863-.131-.861-1.181-1.523-2.105-2.107l-.277-.175a2.5 2.5 0 0 0-1.522-.183q-.166.014-.32.023c-3.602.184-7.13.366-10.705.587-3.403.21-4.479 1.299-4.605 4.66-.11 2.925-.189 5.899-.267 8.775l-.074 2.594c-.038.48-.017.963.061 1.438.305 1.482.853 2.873 2.763 2.986"/><path d="M51.386 72.417c.128.785.32 1.559.577 2.312l.205.549a19 19 0 0 0 2.044 4.35c.808 1.155 2.504 1.74 3.195 1.936a1.89 1.89 0 0 0 1.833-.35 1.71 1.71 0 0 0 .423-1.682c-.158-.737-.308-1.478-.459-2.22a53.5 53.5 0 0 0-2.118-8.19 5.1 5.1 0 0 0-3.163-3.078 6.29 6.29 0 0 0-5.25.638 7.7 7.7 0 0 0-4.009 6.591 19.86 19.86 0 0 0 2.61 10.101 3.21 3.21 0 0 0 2.367 1.43h.053a1.57 1.57 0 0 0 1.181-.46 2.74 2.74 0 0 0 .533-2.118c-.061-1-.197-2.005-.328-2.978a50 50 0 0 1-.28-2.34c-.031-.338-.082-.678-.132-1.024-.204-1.361-.399-2.656.587-4.127q.07.342.13.66"/><path d="M67.739 66.796c-.2-1.113-.48-2.21-.835-3.282a2.98 2.98 0 0 0-1.495-1.841 1.76 1.76 0 0 0-1.46.047 4 4 0 0 0-1.815 2.244 12.5 12.5 0 0 0-2.397-4.735c-1.444-1.614-3.617-2.344-6.427-2.174-2.614-.131-4.495.515-5.744 1.974a3.97 3.97 0 0 0-.716 3.272 1.41 1.41 0 0 0 .762.923c.706.318 1.63-.024 2.261-.31 2.494-1.128 4.608-.494 6.653 1.993q.14.18.253.382c.147.298.365.556.636.75.197.118.397.255.604.393a4.33 4.33 0 0 0 2.141.972q.12 0 .238-.02a2.1 2.1 0 0 0 1.468-.997c.03-.049.046-.106.073-.156.022.532.071 1.064.122 1.588.044.46.089.919.114 1.378a44.5 44.5 0 0 1-1.863 13.812 17.6 17.6 0 0 0-.83 4.683c0 1.252.5 2.217 1.336 2.58.227.1.473.15.721.15a2.73 2.73 0 0 0 1.814-.825 12.1 12.1 0 0 0 3.322-5.062 36.4 36.4 0 0 0 1.064-17.74M49.386 90.808c2.416 0 4.493-.765 5.578-2.095a3.2 3.2 0 0 0 .45-2.685 2.4 2.4 0 0 0-2.26-1.148c-3.779 1.043-6.474.779-9.013-.884a1.45 1.45 0 0 0-1.55-.026 2.43 2.43 0 0 0-1.14 2.19l.022.107c.031.081.066.174.096.273q.142.455.358.88c.953 1.775 3.38 3.053 6.33 3.334q.571.054 1.129.054m6.656-.521a63 63 0 0 0-7.849 1.541c-.747.188-1.75 1.154-1.716 1.85a3.1 3.1 0 0 0 1.444 2.31c.784.32 1.616.507 2.461.553.46.056.96.116 1.52.21l.077.013.075-.022c.411-.122.867-.246 1.353-.379 1.277-.35 2.725-.746 4.142-1.286a3.05 3.05 0 0 0 1.86-1.746 2.25 2.25 0 0 0-.223-1.932c-.499-.852-2.196-1.228-3.144-1.112m-1.299 59.297q.238.026.477.026a4.96 4.96 0 0 0 4.82-4.383c.233-2.607-1.67-4.548-4.736-4.832a5.4 5.4 0 0 0-2.127.101 5.4 5.4 0 0 0-1.923.915 4.1 4.1 0 0 0-1.409 2.888c-.203 2.406 2.177 4.974 4.898 5.285"/></g><defs><clipPath id="a"><path fill="#fff" d="M.685.946H105.7V163.06H.685z"/></clipPath></defs></svg>
